public/avatar/hat/277.svg

<svg xmlns:xlink="http://www.w3.org/1999/xlink" height="92.9" width="100.7" xmlns="http://www.w3.org/2000/svg"><use height="24.55" transform="translate(21.65 43.25)" width="37.9" xlink:href="#a"/><defs><g id="a" fill-rule="evenodd"><path d="M13.5-.7q.45.9 1.05.95L16-.9l.45 1.8q.5.55 1.9-.9.05 1.45-.45 2.25l2.25.05q-.85 1.55-1.45 1.8.25.8 2.2.9l-2.2 1.1 1.4 1.95-2.25-.1q.95 2.05.75 2.2-.2.15-2.25-.9.25 2-.2 2.6l-1.75-2q-.75 1.75-1.8 2.2l-.15-2.45Q11 10.8 10.4 11.05l.3-2.45-2.05.3.9-1.95L7.6 6.5 9.15 5l-1.3-1.35q1.5.05 1.75-.6T8.65 1.4l2.15.05q0-1.45-.4-2.15 1.1.05 2.15 1.15l.6-2 .35.85" fill="#1a171b" transform="translate(17 6.5)"/><path d="m16.75 1.9.45-.15v.1l-.35.55.5.5.95.5-.6.3.2.65.3.55.45.35-.15.05-1.5.35 1.1 1.05.3.4-1.95-.1.85 1.75-2-.95.25 2-1.4-1.4-.5 1.1-.25.4-.2-.65-.5-1-1.2 1.05.05-.6.2-1.1-1.75.25.25-.4.8-1.05-1.8-.4.4-.35.8-.55-.9-.95.85-.8-.05-1.15 1.3.35-.05-1.8 1.35 1.3.45-1.5q.45.45 1.05.55l.5.05.3-.4.1-.1.4.8 1 .45" fill="#b50000" transform="translate(17 6.5)"/><path d="m16.75 1.85.45-.15v.15l-.35.55-.35.75 1.2.35-.75.6q.05.2 1.2.75l.05.05-1.85-.25.8 1.65-1.25-.45.2.95-.95-.4.15 1.35-.9-.8-.25 1.4-.5-1.15-.2 2-.7-1.6-.75.6.1-1.45-1.3.4.8-1.4L9.25 6l1.2-.95-.9-.9.85-.8-.05-1.15 1.3.35-.05-1.8 1.35 1.3.45-1.5q.45.45 1.05.55l.5.05.3-.4.1-.1.4.75.1.1.9.35" fill="red" transform="translate(17 6.5)"/><path d="m11.65.9 1.65 2.05q-.35.95-1.65-2.05m2.35.5.5 2.25q-.5-.05-.65-.45L14 1.4m-1.2 2.5q.15.35-.25.6l-2.8.05L11.5 4q.5-.1-.85-1.45 1.1.45 2.15 1.35" fill="#f66" transform="translate(17 6.5)"/><path d="M12.25 6.15q-.95-.55-2.15-.65 2.35-.85 2.75-.2.15.25-.6.85" fill="#ece9e0" transform="translate(17 6.5)"/><path d="M13.05 4.75Q14 5 14.3 5.4q.25.35-.2.3l-1.05-.95m.65 4.1.45-2.25q.4.2.45.7l-.9 1.55m3.7-2.3q-1-.05-1.3-.4-.35-.3.15-.35.55 0 1.15.75M15.25.9q.45.85.35 1.3l-.4.05.05-1.35" fill="#f66" transform="translate(17 6.5)"/><path d="M4-6.45Q7-6.1 8.9-2.9l3.15 6.05Q14.9 7.6 15.9 14.7q.5 3.25.2 3.05l-3-1q-2.15-.9-2.45-3Q9.15 4.2-.5 4.25q-9.75.1-11 10.05-.25 2.05-2.45 3.1-1.7.85-3 .6-.25 0 .5-3.05l.35-1.75q.35-5.35 2.65-9.1 2.2-3.5 7.95-7.15Q.55-6.9 4-6.45" fill="#1a171b" transform="translate(17 6.5)"/><path d="m14.45 12.6 1.1 3.85q-.1-.25-2.05-.65-1.8-.4-2-2.1-.25-2.45-1.3-4.55L14 10.3l.45 2.3" fill="#d40000" transform="translate(17 6.5)"/><path d="M-15.25 13.25q.1-2.05.6-4l4.2-.8q-1.3 2.1-1.9 5.8-.2 1.4-1.45 2.3-1.2.85-2.3.55l.8-3.7.05-.15" fill="#ffe100" transform="translate(17 6.5)"/><path d="m9.5.15.3.65Q.6-3.7-8.9.45-.95-6.2 3.9-5.6 7-5.25 9.5.15" fill="#059100" transform="translate(17 6.5)"/><path d="M-.5 3.4q-7 0-9.95 5.05l-4.2.8q.75-2.8 1.95-4.7 1-1.7 3.8-4.1Q.6-3.7 9.8.8l1.55 2.8Q13.1 6.4 14 10.3l-3.8-1.15Q7.4 3.45-.5 3.4" fill="#e5bf00" transform="translate(17 6.5)"/><path d="m9.5.05 1.35 2.6.45.7Q5.9-.3-.55-.2-6.6-.1-11.8 3.2l4.2-3.8 2.35-1.05q3.1-1 6.7-.9 5.75.2 8.05 2.6" fill="#e5bf00" transform="translate(17 6.5)"/><path d="m-9.35 3.7-4.15 2q.4-1 1.7-2.5Q-6.6-.1-.55-.2 5.9-.3 11.3 3.35l1.5 2.9Q8.2 2.15.55 1.9q-4.8-.15-9.9 1.8" fill="#059100" transform="translate(17 6.5)"/><path d="m10.85 2.65.95 1.7Q7.8.95.25.7-4.45.55-9.1 2.45l-3.75 1.95L-11 2.35l3.5-1.5Q-3.15-.6 1.15-.5q7.4.2 9.7 3.15" fill="#d40000" transform="translate(17 6.5)"/><path d="M2.1-1.5q5.2.5 8.05 2.9l.65 1.15Q6.8-.3 2.05-.5-4.3-.75-11 2.35l1.1-1L-6.15-.3Q-1.6-1.85 2.1-1.5" fill="#e85100" transform="translate(17 6.5)"/><path d="m-15 10.85 4-1.55q-.85 1.7-1.05 3.55l-3.3 1.05.35-3.05" fill="#ece9e0" transform="translate(17 6.5)"/><path d="m9.9 8.35 1.4.3q1.6.5 2.55 1.2l.9 3.95q-2.15-1-3.4-1.05L9.9 8.35" fill="#e5bf00" transform="translate(17 6.5)"/><path d="m-14.75 9.9 4.35-1.75-.55 1.05q-2.75.85-4.05 1.65l.25-.95" fill="#725d42" transform="translate(17 6.5)"/><path d="M9.85 8.35q2.8.5 4.1 1.5l.2 1.15-3.65-1.2-.65-1.45" fill="#e85100" transform="translate(17 6.5)"/><path d="M8.9 7.1q3.4.6 4.7 1.45l.35 1.3-4.2-1.45-.85-1.3" fill="#d40000" transform="translate(17 6.5)"/><path d="m-15.35 13.9 3.3-1.05-.1.85q-2 .3-3.35 1.1l.15-.9" fill="#1a171b" transform="translate(17 6.5)"/><path d="m11.25 12.3 3.4 1.1.4 1.35q-2.1-.75-3.5-.9l-.3-1.55" fill="#059100" transform="translate(17 6.5)"/><path d="m-15.25 13.25.05-.75 3.45-.95-.6 2.7q-.2 1.4-1.45 2.3-1.2.85-2.3.55l.8-3.7.05-.15" fill="red" transform="translate(17 6.5)"/><path d="M-4.55 3.95q-5.55 1.55-7.2 7.6l-3.45.95q.45-4.7 2.5-7.95Q-11.4 2.4-8.35 0q3.2-.85 6.4-1Q-3.5.75-4.55 3.95" fill="#ffe100" transform="translate(17 6.5)"/><path d="M3.9-5.6q2.55.3 4.15 2.95Q4.7-3.95 1.1-3.2-.7-2.5-1.95-1q-3.2.15-6.4 1Q-.75-6.15 3.9-5.6M-13.5 5.7q.35-.9 1.65-2.5l4.35-2Q-4.9.1-2.55-.05l-1.35 2.3q-3.55.65-6.9 2.1l-2.7 1.35" fill="#06bd00" transform="translate(17 6.5)"/><path d="M-.25-2.5q-1.2.8-2.3 2.45Q-4.9.1-7.5 1.2l-4.35 2q1.8-2 4.25-3.8l1.9-.85q2.5-.9 5.45-1.05" fill="#ffe100" transform="translate(17 6.5)"/><path d="m-11 2.35 2.5-1.05Q-5.35.15-2.25-.25L-3.1.9q-3.45.55-6.95 2.1l-2.8 1.4L-11 2.35" fill="red" transform="translate(17 6.5)"/><path d="M-6.9-.1q2.85-.95 5.55-1.3l-1 1.15Q-6.8.35-11 2.35l1.75-1.6L-6.9-.1" fill="#ff6a00" transform="translate(17 6.5)"/><path d="m-15 10.85 4-1.55q-.85 1.7-1.05 3.55l-3.3 1.05.35-3.05" fill="#ffed66" transform="translate(17 6.5)"/><path d="m-14.85 10.25 3.95-1.05-.45 1.3q-2.45.5-3.75 1.25l.25-1.5" fill="#ff6a00" transform="translate(17 6.5)"/><path d="m-15.35 13.9 3.3-1.05-.1.85q-2 .3-3.35 1.1l.15-.9" fill="#06bd00" transform="translate(17 6.5)"/><path d="m5.15-6.05 3.1 1.55q3.5 2.4 5.6 6.75l-.2.4q-.25.15-.7-.65-3.65-5.65-7-6.8l-.8-1.25" fill="#1a171b" transform="translate(17 6.5)"/><path d="m-14.6 8.85 2.1-.65 2.35-.45-.75 1.45-3.95 1.05.25-1.4" fill="red" transform="translate(17 6.5)"/></g></defs></svg>

<?xml version="1.0" encoding="UTF-8" standalone="no"?>
<svg xmlns:xlink="http://www.w3.org/1999/xlink" height="92.9px" width="100.7px" xmlns="http://www.w3.org/2000/svg">
  <g transform="matrix(1.0, 0.0, 0.0, 1.0, 38.65, 49.75)">
    <use height="24.55" transform="matrix(1.0, 0.0, 0.0, 1.0, -17.0, -6.5)" width="37.9" xlink:href="#shape0"/>
  </g>
  <defs>
    <g id="shape0" transform="matrix(1.0, 0.0, 0.0, 1.0, 17.0, 6.5)">
      <path d="M13.5 -0.7 Q13.95 0.2 14.55 0.25 L16.0 -0.9 16.45 0.9 Q16.95 1.45 18.35 0.0 18.4 1.45 17.9 2.25 L20.15 2.3 Q19.3 3.85 18.7 4.1 18.95 4.9 20.9 5.0 L18.7 6.1 20.1 8.05 17.85 7.95 Q18.8 10.0 18.6 10.15 18.4 10.3 16.35 9.25 16.6 11.25 16.15 11.85 L14.4 9.85 Q13.65 11.6 12.6 12.05 L12.45 9.6 Q11.0 10.8 10.4 11.05 L10.7 8.6 8.65 8.9 9.55 6.95 7.6 6.5 9.15 5.0 7.85 3.65 Q9.35 3.7 9.6 3.05 9.85 2.4 8.65 1.4 L10.8 1.45 Q10.8 0.0 10.4 -0.7 11.5 -0.65 12.55 0.45 L13.15 -1.55 13.5 -0.7" fill="#1a171b" fill-rule="evenodd" stroke="none"/>
      <path d="M16.75 1.9 L17.2 1.75 17.2 1.85 16.85 2.4 17.35 2.9 18.3 3.4 17.7 3.7 17.9 4.35 18.2 4.9 18.65 5.25 18.5 5.3 17.0 5.65 18.1 6.7 18.4 7.1 16.45 7.0 17.3 8.75 15.3 7.8 15.55 9.8 14.15 8.4 13.65 9.5 13.4 9.9 13.2 9.25 12.7 8.25 11.5 9.3 11.55 8.7 11.75 7.6 10.0 7.85 10.25 7.45 11.05 6.4 9.25 6.0 9.65 5.65 10.45 5.1 9.55 4.15 10.4 3.35 10.35 2.2 11.65 2.55 11.6 0.75 12.95 2.05 13.4 0.55 Q13.85 1.0 14.45 1.1 L14.95 1.15 15.25 0.75 15.35 0.65 15.75 1.45 16.75 1.9" fill="#b50000" fill-rule="evenodd" stroke="none"/>
      <path d="M16.75 1.85 L17.2 1.7 17.2 1.85 16.85 2.4 16.5 3.15 17.7 3.5 16.95 4.1 Q17.0 4.3 18.15 4.85 L18.2 4.9 16.35 4.65 17.15 6.3 15.9 5.85 16.1 6.8 15.15 6.4 15.3 7.75 14.4 6.95 14.15 8.35 13.65 7.2 13.45 9.2 12.75 7.6 12.0 8.2 12.1 6.75 10.8 7.15 11.6 5.75 9.25 6.0 10.45 5.05 9.55 4.15 10.4 3.35 10.35 2.2 11.65 2.55 11.6 0.75 12.95 2.05 13.4 0.55 Q13.85 1.0 14.45 1.1 L14.95 1.15 15.25 0.75 15.35 0.65 15.75 1.4 15.85 1.5 16.75 1.85" fill="#ff0000" fill-rule="evenodd" stroke="none"/>
      <path d="M11.65 0.9 L13.3 2.95 Q12.95 3.9 11.65 0.9" fill="#ff6666" fill-rule="evenodd" stroke="none"/>
      <path d="M14.0 1.4 L14.5 3.65 Q14.0 3.6 13.85 3.2 L14.0 1.4" fill="#ff6666" fill-rule="evenodd" stroke="none"/>
      <path d="M12.8 3.9 Q12.95 4.25 12.55 4.5 L9.75 4.55 11.5 4.0 Q12.0 3.9 10.65 2.55 11.75 3.0 12.8 3.9" fill="#ff6666" fill-rule="evenodd" stroke="none"/>
      <path d="M12.25 6.15 Q11.3 5.6 10.1 5.5 12.45 4.65 12.85 5.3 13.0 5.55 12.25 6.15" fill="#ece9e0" fill-rule="evenodd" stroke="none"/>
      <path d="M13.05 4.75 Q14.0 5.0 14.3 5.4 14.55 5.75 14.1 5.7 L13.05 4.75" fill="#ff6666" fill-rule="evenodd" stroke="none"/>
      <path d="M13.7 8.85 L14.15 6.6 Q14.55 6.8 14.6 7.3 L13.7 8.85" fill="#ff6666" fill-rule="evenodd" stroke="none"/>
      <path d="M17.4 6.55 Q16.4 6.5 16.1 6.15 15.75 5.85 16.25 5.8 16.8 5.8 17.4 6.55" fill="#ff6666" fill-rule="evenodd" stroke="none"/>
      <path d="M15.25 0.9 Q15.7 1.75 15.6 2.2 L15.2 2.25 15.25 0.9" fill="#ff6666" fill-rule="evenodd" stroke="none"/>
      <path d="M4.0 -6.45 Q7.0 -6.1 8.9 -2.9 L12.05 3.15 Q14.9 7.6 15.9 14.7 16.4 17.95 16.1 17.75 L13.1 16.75 Q10.95 15.85 10.65 13.75 9.15 4.2 -0.5 4.25 -10.25 4.35 -11.5 14.3 -11.75 16.35 -13.95 17.4 -15.65 18.25 -16.95 18.0 -17.2 18.0 -16.45 14.95 L-16.1 13.2 Q-15.75 7.85 -13.45 4.1 -11.25 0.6 -5.5 -3.05 0.55 -6.9 4.0 -6.45" fill="#1a171b" fill-rule="evenodd" stroke="none"/>
      <path d="M14.45 12.6 L15.55 16.45 Q15.45 16.2 13.5 15.8 11.7 15.4 11.5 13.7 11.25 11.25 10.2 9.15 L14.0 10.3 14.45 12.6" fill="#d40000" fill-rule="evenodd" stroke="none"/>
      <path d="M-15.25 13.25 Q-15.15 11.2 -14.65 9.25 L-10.45 8.45 Q-11.75 10.55 -12.35 14.25 -12.55 15.65 -13.8 16.55 -15.0 17.4 -16.1 17.1 L-15.3 13.4 -15.25 13.25" fill="#ffe100" fill-rule="evenodd" stroke="none"/>
      <path d="M9.5 0.15 L9.8 0.8 Q0.6 -3.7 -8.9 0.45 -0.95 -6.2 3.9 -5.6 7.0 -5.25 9.5 0.15" fill="#059100" fill-rule="evenodd" stroke="none"/>
      <path d="M-0.5 3.4 Q-7.5 3.4 -10.45 8.45 L-14.65 9.25 Q-13.9 6.45 -12.7 4.55 -11.7 2.85 -8.9 0.45 0.6 -3.7 9.8 0.8 L11.35 3.6 Q13.1 6.4 14.0 10.3 L10.2 9.15 Q7.4 3.45 -0.5 3.4" fill="#e5bf00" fill-rule="evenodd" stroke="none"/>
      <path d="M9.5 0.05 L10.85 2.65 11.3 3.35 Q5.9 -0.3 -0.55 -0.2 -6.6 -0.1 -11.8 3.2 L-7.6 -0.6 -5.25 -1.65 Q-2.15 -2.65 1.45 -2.55 7.2 -2.35 9.5 0.05" fill="#e5bf00" fill-rule="evenodd" stroke="none"/>
      <path d="M-9.35 3.7 L-13.5 5.7 Q-13.1 4.7 -11.8 3.2 -6.6 -0.1 -0.55 -0.2 5.9 -0.3 11.3 3.35 L12.8 6.25 Q8.2 2.15 0.55 1.9 -4.25 1.75 -9.35 3.7" fill="#059100" fill-rule="evenodd" stroke="none"/>
      <path d="M10.85 2.65 L11.8 4.35 Q7.8 0.95 0.25 0.7 -4.45 0.55 -9.1 2.45 L-12.85 4.4 -11.0 2.35 -7.5 0.85 Q-3.15 -0.6 1.15 -0.5 8.55 -0.3 10.85 2.65" fill="#d40000" fill-rule="evenodd" stroke="none"/>
      <path d="M2.1 -1.5 Q7.3 -1.0 10.15 1.4 L10.8 2.55 Q6.8 -0.3 2.05 -0.5 -4.3 -0.75 -11.0 2.35 L-9.9 1.35 -6.15 -0.3 Q-1.6 -1.85 2.1 -1.5" fill="#e85100" fill-rule="evenodd" stroke="none"/>
      <path d="M-15.0 10.85 L-11.0 9.3 Q-11.85 11.0 -12.05 12.85 L-15.35 13.9 -15.0 10.85" fill="#ece9e0" fill-rule="evenodd" stroke="none"/>
      <path d="M9.9 8.35 L11.3 8.65 Q12.9 9.15 13.85 9.85 L14.75 13.8 Q12.6 12.8 11.35 12.75 L9.9 8.35" fill="#e5bf00" fill-rule="evenodd" stroke="none"/>
      <path d="M-14.75 9.9 L-10.4 8.15 -10.95 9.2 Q-13.7 10.05 -15.0 10.85 L-14.75 9.9" fill="#725d42" fill-rule="evenodd" stroke="none"/>
      <path d="M9.85 8.35 Q12.65 8.85 13.95 9.85 L14.15 11.0 10.5 9.8 9.85 8.35" fill="#e85100" fill-rule="evenodd" stroke="none"/>
      <path d="M8.9 7.1 Q12.3 7.7 13.6 8.55 L13.95 9.85 9.75 8.4 8.9 7.1" fill="#d40000" fill-rule="evenodd" stroke="none"/>
      <path d="M-15.35 13.9 L-12.05 12.85 -12.15 13.7 Q-14.15 14.0 -15.5 14.8 L-15.35 13.9" fill="#1a171b" fill-rule="evenodd" stroke="none"/>
      <path d="M11.25 12.3 L14.65 13.4 15.05 14.75 Q12.95 14.0 11.55 13.85 L11.25 12.3" fill="#059100" fill-rule="evenodd" stroke="none"/>
      <path d="M-15.25 13.25 L-15.2 12.5 -11.75 11.55 -12.35 14.25 Q-12.55 15.65 -13.8 16.55 -15.0 17.4 -16.1 17.1 L-15.3 13.4 -15.25 13.25" fill="#ff0000" fill-rule="evenodd" stroke="none"/>
      <path d="M-4.55 3.95 Q-10.1 5.5 -11.75 11.55 L-15.2 12.5 Q-14.75 7.8 -12.7 4.55 -11.4 2.4 -8.35 0.0 -5.15 -0.85 -1.95 -1.0 -3.5 0.75 -4.55 3.95" fill="#ffe100" fill-rule="evenodd" stroke="none"/>
      <path d="M3.9 -5.6 Q6.45 -5.3 8.05 -2.65 4.7 -3.95 1.1 -3.2 -0.7 -2.5 -1.95 -1.0 -5.15 -0.85 -8.35 0.0 -0.75 -6.15 3.9 -5.6" fill="#06bd00" fill-rule="evenodd" stroke="none"/>
      <path d="M-13.5 5.7 Q-13.15 4.8 -11.85 3.2 L-7.5 1.2 Q-4.9 0.1 -2.55 -0.05 L-3.9 2.25 Q-7.45 2.9 -10.8 4.35 L-13.5 5.7" fill="#06bd00" fill-rule="evenodd" stroke="none"/>
      <path d="M-0.25 -2.5 Q-1.45 -1.7 -2.55 -0.05 -4.9 0.1 -7.5 1.2 L-11.85 3.2 Q-10.05 1.2 -7.6 -0.6 L-5.7 -1.45 Q-3.2 -2.35 -0.25 -2.5" fill="#ffe100" fill-rule="evenodd" stroke="none"/>
      <path d="M-11.0 2.35 L-8.5 1.3 Q-5.35 0.15 -2.25 -0.25 L-3.1 0.9 Q-6.55 1.45 -10.05 3.0 L-12.85 4.4 -11.0 2.35" fill="#ff0000" fill-rule="evenodd" stroke="none"/>
      <path d="M-6.9 -0.1 Q-4.05 -1.05 -1.35 -1.4 L-2.35 -0.25 Q-6.8 0.35 -11.0 2.35 L-9.25 0.75 -6.9 -0.1" fill="#ff6a00" fill-rule="evenodd" stroke="none"/>
      <path d="M-15.0 10.85 L-11.0 9.3 Q-11.85 11.0 -12.05 12.85 L-15.35 13.9 -15.0 10.85" fill="#ffed66" fill-rule="evenodd" stroke="none"/>
      <path d="M-14.85 10.25 L-10.9 9.2 -11.35 10.5 Q-13.8 11.0 -15.1 11.75 L-14.85 10.25" fill="#ff6a00" fill-rule="evenodd" stroke="none"/>
      <path d="M-15.35 13.9 L-12.05 12.85 -12.15 13.7 Q-14.15 14.0 -15.5 14.8 L-15.35 13.9" fill="#06bd00" fill-rule="evenodd" stroke="none"/>
      <path d="M5.15 -6.05 L8.25 -4.5 Q11.75 -2.1 13.85 2.25 L13.65 2.65 Q13.4 2.8 12.95 2.0 9.3 -3.65 5.95 -4.8 L5.15 -6.05" fill="#1a171b" fill-rule="evenodd" stroke="none"/>
      <path d="M-14.6 8.85 L-12.5 8.2 -10.15 7.75 -10.9 9.2 -14.85 10.25 -14.6 8.85" fill="#ff0000" fill-rule="evenodd" stroke="none"/>
    </g>
  </defs>
</svg>
